src/assets/images/free-demat-compaign/bonds.svg

<svg width="37" height="48" viewBox="0 0 37 48" fill="none" xmlns="http://www.w3.org/2000/svg">
<path d="M27.9106 27.3668C23.0206 27.4383 19.5031 29.6688 17.4584 33.987C15.3852 38.3766 16.3146 42.4517 19.3744 46.1979C19.1314 46.1979 18.9455 46.2265 18.7596 46.2265C13.7408 46.2265 8.73637 46.2265 3.71761 46.2265C1.34406 46.2265 0 44.8967 0 42.5089C0 31.3989 0 20.289 0 9.1648C0 7.306 0.929401 6.00484 2.54513 5.60448C2.88829 5.51869 3.24576 5.50439 3.60322 5.50439C10.5094 5.50439 17.4156 5.50439 24.3074 5.50439C26.538 5.50439 27.8963 6.89135 27.8963 9.12191C27.8963 15.0129 27.8963 20.9182 27.8963 26.8091C27.8963 26.9807 27.8963 27.1666 27.8963 27.3668H27.9106ZM11.353 25.4365C15.8713 25.4651 19.6461 21.7475 19.6747 17.2434C19.7033 12.5249 16.1573 8.89313 11.4817 8.86454C6.70599 8.82164 3.08847 12.3963 3.07417 17.2006C3.05987 21.6903 6.80608 25.4222 11.353 25.4508V25.4365ZM10.7954 29.1398C12.9687 29.1398 15.1421 29.1398 17.3155 29.1398C17.9446 29.1398 18.3307 28.8109 18.345 28.2962C18.345 27.7814 17.9589 27.424 17.3441 27.424C12.9544 27.424 8.57909 27.424 4.18945 27.424C3.97498 27.424 3.66041 27.4812 3.56032 27.6241C3.38874 27.8815 3.24576 28.2247 3.28865 28.5106C3.36014 28.9825 3.7605 29.1255 4.21805 29.1255C6.40572 29.1255 8.60769 29.1255 10.7954 29.1255V29.1398ZM8.85076 34.9736C10.4379 34.9736 12.025 34.9736 13.6122 34.9736C14.2127 34.9736 14.5844 34.6447 14.5987 34.1442C14.5987 33.6438 14.2413 33.272 13.655 33.272C10.4808 33.272 7.30652 33.272 4.14656 33.272C3.88919 33.272 3.53172 33.4579 3.38874 33.6581C3.24576 33.8583 3.21716 34.2872 3.34584 34.4874C3.50313 34.7162 3.87489 34.9307 4.16086 34.945C5.73369 34.9879 7.29223 34.9593 8.86506 34.9593L8.85076 34.9736ZM8.52189 39.1058C7.10634 39.1058 5.70509 39.1058 4.28954 39.1058C3.61752 39.1058 3.21716 39.4204 3.21716 39.9494C3.21716 40.4785 3.61752 40.8216 4.28954 40.8216C7.10635 40.8216 9.92315 40.8216 12.7399 40.8216C13.3977 40.8216 13.798 40.4642 13.7837 39.9351C13.7694 39.4204 13.3977 39.1201 12.7399 39.1058C11.3244 39.1058 9.92315 39.1058 8.5076 39.1058H8.52189Z" fill="white"/>
<path d="M28.4252 29.2114C33.4726 29.7119 37.1044 33.7154 36.9185 39.0059C36.7469 44.0389 32.6862 47.9996 27.5244 47.9996C22.3341 47.9996 18.5307 43.896 18.1875 39.4348C18.3877 39.4348 18.5736 39.4348 18.7594 39.4348C21.5619 39.4348 24.3644 39.4348 27.1669 39.4348C28.1392 39.4348 28.4109 39.1632 28.4109 38.2052C28.4109 35.417 28.4109 32.6288 28.4109 29.8406V29.2114H28.4252Z" fill="white"/>
<path d="M7.56333 3.78851C7.52044 1.18619 9.13617 -0.272259 11.5955 0.0423076C17.3721 0.785829 23.163 1.50075 28.9396 2.22998C30.1835 2.38726 31.4132 2.53024 32.6429 2.73042C34.3158 3.01639 35.4311 4.37475 35.3024 6.07627C35.1737 7.69199 34.9306 9.30772 34.7304 10.9092C34.2443 14.7125 33.7582 18.5302 33.272 22.3336C33.0146 24.364 32.7573 26.4087 32.4856 28.482C31.5419 28.1674 30.6268 27.8672 29.6259 27.524C29.6259 27.3953 29.6259 27.1951 29.6259 26.9806C29.6259 20.9753 29.6259 14.9699 29.6259 8.96456C29.6259 6.39083 27.9816 4.34615 25.5222 3.8743C25.0647 3.78851 24.5928 3.78851 24.1353 3.78851C18.8162 3.78851 13.4972 3.78851 8.19247 3.78851H7.57763H7.56333Z" fill="white"/>
<path d="M26.6659 29.1826V36.2032C25.0502 34.5731 23.363 32.9002 21.6758 31.1987C23.0341 30.0691 24.7214 29.3542 26.6659 29.1826Z" fill="white"/>
<path d="M25.3068 37.6901H18.1719C18.3578 35.7598 19.0584 34.0726 20.2595 32.6284C21.961 34.3299 23.6339 36.0172 25.3068 37.6901Z" fill="white"/>
<path d="M11.4697 10.5233C7.93798 10.4518 4.87811 13.3687 4.80661 16.9004C4.72082 20.618 7.50903 23.5778 11.1551 23.6636C15.0014 23.7494 17.8897 21.0183 17.9755 17.2292C18.0613 13.5974 15.1444 10.5948 11.484 10.5233H11.4697ZM14.1864 16.2427C14.1435 16.2427 14.1006 16.2427 14.0577 16.2427H14.0291H13.6288C13.2999 16.2427 12.9567 16.2427 12.6136 16.2427C12.3562 17.2578 11.4554 17.9585 10.383 17.9728C10.2829 17.9728 10.1828 17.9728 10.0828 17.9728L12.442 20.332C12.4849 20.3749 12.5564 20.4464 12.5993 20.5179C12.7423 20.761 12.7137 21.0326 12.5278 21.2328C12.4134 21.3615 12.2561 21.4187 12.1131 21.4187C11.9702 21.4187 11.8987 21.3901 11.7986 21.3329C11.7271 21.29 11.6699 21.2328 11.6127 21.1899H11.5984C11.5984 21.1756 10.4831 20.046 10.4831 20.046C9.76819 19.3311 9.03897 18.6019 8.32404 17.887C8.20965 17.7726 7.96658 17.5295 8.12386 17.1578C8.28115 16.786 8.63861 16.8003 8.79589 16.8003H8.93888C9.42502 16.8003 9.93977 16.8003 10.4259 16.8003C10.812 16.8003 11.1694 16.5858 11.3553 16.2569H10.2257C9.72529 16.2569 9.21055 16.2569 8.7101 16.2569C8.52422 16.2569 8.35264 16.1855 8.23825 16.0711C8.12386 15.9567 8.08097 15.8137 8.08097 15.6421C8.08097 15.3133 8.35264 15.0845 8.7101 15.0702C8.7387 15.0702 8.78159 15.0702 8.81019 15.0702H8.85309H11.3553C11.341 15.0416 11.3124 15.013 11.2981 14.9844C11.0693 14.6841 10.7691 14.5268 10.383 14.5268H9.73959C9.42502 14.5268 9.11046 14.5268 8.79589 14.5268C8.6958 14.5268 8.59571 14.5268 8.48132 14.4839C8.20965 14.3981 8.05237 14.1694 8.08097 13.8834C8.10956 13.5974 8.29544 13.3973 8.56712 13.3544C8.63861 13.3544 8.7244 13.3544 8.78159 13.3544H8.81019C10.5546 13.3544 12.3133 13.3544 14.0577 13.3544H14.0863C14.1292 13.3544 14.1864 13.3544 14.2293 13.3544C14.5439 13.383 14.7441 13.5974 14.7727 13.8977C14.787 14.198 14.6154 14.4267 14.3151 14.4982C14.2007 14.5268 14.1006 14.5268 14.0148 14.5268H13.9719C13.5001 14.5268 13.0139 14.5268 12.5421 14.5268H12.4277C12.5278 14.6984 12.5993 14.8843 12.6565 15.0702C13.1712 15.0702 13.6717 15.0702 14.1864 15.0702C14.5153 15.0702 14.7727 15.3133 14.787 15.6278C14.8013 15.9567 14.5582 16.2141 14.215 16.2427H14.1864Z" fill="white"/>
</svg>

<svg width="37" height="48" fill="none" xmlns="http://www.w3.org/2000/svg"><path d="M27.91 27.367c-4.89.071-8.407 2.302-10.452 6.62-2.073 4.39-1.143 8.465 1.916 12.21-.243 0-.428.03-.614.03H3.718C1.344 46.227 0 44.897 0 42.508V9.165c0-1.859.93-3.16 2.545-3.56.343-.086.7-.1 1.058-.1h20.704c2.231 0 3.59 1.386 3.59 3.617v18.245h.014zm-16.557-1.93c4.518.028 8.293-3.69 8.322-8.194.028-4.718-3.518-8.35-8.193-8.378-4.776-.043-8.394 3.531-8.408 8.336-.014 4.49 3.732 8.221 8.279 8.25v-.015zm-.558 3.703h6.52c.63 0 1.016-.33 1.03-.844 0-.515-.386-.872-1-.872H4.188c-.214 0-.529.057-.629.2-.171.258-.314.6-.271.887.071.472.471.614.929.614h6.577v.015zm-1.944 5.834h4.761c.6 0 .972-.33.987-.83 0-.5-.358-.872-.944-.872H4.147c-.258 0-.615.186-.758.386-.143.2-.172.63-.043.83.157.228.529.443.815.457 1.573.043 3.131.014 4.704.014l-.014.015zm-.33 4.132H4.29c-.672 0-1.073.314-1.073.843 0 .53.4.873 1.073.873h8.45c.658 0 1.058-.358 1.044-.887-.015-.515-.386-.815-1.044-.83H8.508h.014z" fill="#fff"/><path d="M28.425 29.211c5.048.5 8.68 4.504 8.494 9.795C36.747 44.039 32.686 48 27.524 48c-5.19 0-8.993-4.104-9.337-8.565H27.167c.972 0 1.244-.272 1.244-1.23V29.211h.014zM7.563 3.789C7.52 1.186 9.136-.272 11.595.042 17.372.786 23.163 1.501 28.94 2.23c1.243.157 2.473.3 3.703.5 1.673.286 2.788 1.645 2.66 3.346-.13 1.616-.372 3.232-.573 4.833l-1.458 11.425c-.257 2.03-.515 4.075-.786 6.148-.944-.315-1.86-.615-2.86-.958V8.965c0-2.574-1.644-4.619-4.104-5.09-.457-.086-.93-.086-1.387-.086H7.563z" fill="#fff"/><path d="M26.666 29.183v7.02c-1.616-1.63-3.303-3.303-4.99-5.004 1.358-1.13 3.045-1.845 4.99-2.016zM25.307 37.69h-7.135c.186-1.93.886-3.617 2.087-5.062 1.702 1.702 3.375 3.39 5.048 5.062zM11.47 10.523c-3.532-.071-6.592 2.846-6.663 6.377-.086 3.718 2.702 6.678 6.348 6.764 3.846.085 6.735-2.646 6.82-6.435.086-3.632-2.83-6.634-6.491-6.706h-.014zm2.716 5.72h-1.572c-.258 1.015-1.159 1.716-2.231 1.73h-.3l2.359 2.359c.043.043.114.114.157.186a.581.581 0 0 1-.071.715.556.556 0 0 1-.415.186.544.544 0 0 1-.314-.086c-.072-.043-.13-.1-.186-.143h-.015c0-.014-1.115-1.144-1.115-1.144l-2.159-2.159c-.114-.114-.357-.358-.2-.73.157-.371.515-.357.672-.357H10.426c.386 0 .743-.214.93-.543H8.71a.67.67 0 0 1-.472-.186c-.114-.114-.157-.257-.157-.429 0-.329.272-.557.63-.572H11.354c-.014-.028-.043-.057-.057-.086a1.093 1.093 0 0 0-.915-.457H8.796c-.1 0-.2 0-.315-.043a.549.549 0 0 1-.4-.6.565.565 0 0 1 .486-.53h5.662a.573.573 0 0 1 .544.544.561.561 0 0 1-.458.6c-.114.029-.214.029-.3.029h-1.587c.1.171.171.357.228.543h1.53c.33 0 .587.243.601.558.014.329-.229.586-.572.615h-.029z" fill="#fff"/></svg>
